fs/channel_alert_28_regular.svg

<svg viewBox="0 0 28 28" fill="none" xmlns="http://www.w3.org/2000/svg" height="1em" width="1em">
  <path d="M3 11.3965V20.75C3 23.0972 4.90279 25 7.25 25H14.4995C14.1527 24.5384 13.858 24.0355 13.6241 23.5H7.25C5.73122 23.5 4.5 22.2688 4.5 20.75V11.3965C4.26158 11.4639 4.01001 11.5 3.75 11.5C3.48999 11.5 3.23842 11.4639 3 11.3965ZM25 7.25V14.4995C24.5384 14.1527 24.0355 13.858 23.5 13.6241V7.25C23.5 5.73122 22.2688 4.5 20.75 4.5H7.25C6.1126 4.5 5.13648 5.19051 4.71797 6.17519C4.41688 6.06195 4.09067 6 3.75 6C3.55045 6 3.35586 6.02125 3.16838 6.06162C3.6825 4.29278 5.31528 3 7.25 3H20.75C23.0972 3 25 4.90279 25 7.25ZM9.75 15H15.4009C14.9235 15.4428 14.5039 15.947 14.1546 16.5H9.75C9.33579 16.5 9 16.1642 9 15.75C9 15.3358 9.33579 15 9.75 15ZM2 8.75C2 9.4481 2.40876 10.0507 3 10.3316C3.22731 10.4396 3.4816 10.5 3.75 10.5C4.0184 10.5 4.27269 10.4396 4.5 10.3316C5.09124 10.0507 5.5 9.4481 5.5 8.75C5.5 8.05236 5.09178 7.45007 4.50117 7.16896C4.27356 7.06063 4.01886 7 3.75 7C3.48191 7 3.22789 7.06029 3.00077 7.16804C2.40912 7.44875 2 8.0516 2 8.75ZM9.75 11C9.33579 11 9 11.3358 9 11.75C9 12.1642 9.33579 12.5 9.75 12.5H18.25C18.6642 12.5 19 12.1642 19 11.75C19 11.3358 18.6642 11 18.25 11H9.75ZM27 20.5C27 24.0899 24.0899 27 20.5 27C16.9101 27 14 24.0899 14 20.5C14 16.9101 16.9101 14 20.5 14C24.0899 14 27 16.9101 27 20.5ZM20.5 16C19.1193 16 18 17.1193 18 18.5V21.2929L17.1465 22.1464C17.0035 22.2894 16.9607 22.5045 17.0381 22.6913C17.1155 22.8782 17.2978 23 17.5 23H23.5C23.7022 23 23.8846 22.8782 23.962 22.6913C24.0393 22.5045 23.9966 22.2894 23.8536 22.1464L23 21.2929V18.5C23 17.1193 21.8807 16 20.5 16ZM19.0854 24C19.2913 24.5826 19.8469 25 20.5 25C21.1531 25 21.7087 24.5826 21.9146 24H19.0854Z" fill="#212121"/>
</svg>

<svg viewBox="0 0 28 28" fill="none" xmlns="http://www.w3.org/2000/svg" height="1em" width="1em">
  <path d="M3 11.396v9.354A4.25 4.25 0 0 0 7.25 25h7.25a7.486 7.486 0 0 1-.876-1.5H7.25a2.75 2.75 0 0 1-2.75-2.75v-9.354a2.753 2.753 0 0 1-1.5 0ZM25 7.25v7.25a7.486 7.486 0 0 0-1.5-.876V7.25a2.75 2.75 0 0 0-2.75-2.75H7.25a2.75 2.75 0 0 0-2.532 1.675 2.744 2.744 0 0 0-1.55-.113A4.252 4.252 0 0 1 7.25 3h13.5A4.25 4.25 0 0 1 25 7.25ZM9.75 15h5.65a7.535 7.535 0 0 0-1.245 1.5H9.75a.75.75 0 0 1 0-1.5ZM2 8.75a1.75 1.75 0 1 0 3.5 0 1.75 1.75 0 0 0-3.5 0ZM9.75 11a.75.75 0 0 0 0 1.5h8.5a.75.75 0 0 0 0-1.5h-8.5ZM27 20.5a6.5 6.5 0 1 1-13 0 6.5 6.5 0 0 1 13 0ZM20.5 16a2.5 2.5 0 0 0-2.5 2.5v2.793l-.854.853A.5.5 0 0 0 17.5 23h6a.5.5 0 0 0 .354-.854L23 21.293V18.5a2.5 2.5 0 0 0-2.5-2.5Zm-1.415 8a1.5 1.5 0 0 0 2.83 0h-2.83Z" fill="#212121"/>
</svg>
